X: 30499
T: Olga's Cup And Saucer
R: jig
M: 6/8
K: Amajor
cec cBA|B3 BAB|cec cBA|BAF FEF|
[1cec cBA|B3 BAB|ABc ecB|BAF FEF:|
[2cec cBA|BAF FEF|EFA cAA|BAA A3||
|:ABc ece|fdf fdf|
[1ABc ecB|BAF FEF|ABc ece|fdf fdf|ABc ecB|BAF FEF:|
[2ABc ece|dcd Bcd|cec cBA|B3 BAF|EFA cAA|BAA A3||

